svg/Pictogram/pictograms-nps-drinking_water.svg

<?xml version="1.0" encoding="UTF-8" standalone="no"?>
<!-- Generator: Adobe Illustrator 13.0.2, SVG Export Plug-In . SVG Version: 6.00 Build 14948)  -->
<svg
   xmlns:dc="http://purl.org/dc/elements/1.1/"
   xmlns:cc="http://creativecommons.org/ns#"
   xmlns:rdf="http://www.w3.org/1999/02/22-rdf-syntax-ns#"
   xmlns:svg="http://www.w3.org/2000/svg"
   xmlns="http://www.w3.org/2000/svg"
   xmlns:sodipodi="http://sodipodi.sourceforge.net/DTD/sodipodi-0.dtd"
   xmlns:inkscape="http://www.inkscape.org/namespaces/inkscape"
   version="1.1"
   id="Layer_1"
   x="0px"
   y="0px"
   width="123.547px"
   height="123.539px"
   viewBox="-0.258 -0.548 123.547 123.539"
   style="enable-background:new -0.258 -0.548 123.547 123.539;"
   xml:space="preserve"
   sodipodi:version="0.32"
   inkscape:version="0.46"
   sodipodi:docname="pictograms-nps-drinking_water-2.svg"
   inkscape:output_extension="org.inkscape.output.svg.inkscape"><metadata
   id="metadata17898"><rdf:RDF><cc:Work
       rdf:about=""><dc:format>image/svg+xml</dc:format><dc:type
         rdf:resource="http://purl.org/dc/dcmitype/StillImage" /></cc:Work></rdf:RDF></metadata><defs
   id="defs17896"><inkscape:perspective
     sodipodi:type="inkscape:persp3d"
     inkscape:vp_x="0 : 61.769501 : 1"
     inkscape:vp_y="0 : 1000 : 0"
     inkscape:vp_z="123.547 : 61.769501 : 1"
     inkscape:persp3d-origin="61.773499 : 41.179667 : 1"
     id="perspective17900" /></defs><sodipodi:namedview
   inkscape:window-height="700"
   inkscape:window-width="727"
   inkscape:pageshadow="2"
   inkscape:pageopacity="0.0"
   guidetolerance="10.0"
   gridtolerance="10.0"
   objecttolerance="10.0"
   borderopacity="1.0"
   bordercolor="#666666"
   pagecolor="#ffffff"
   id="base"
   showgrid="false"
   inkscape:zoom="0.93897473"
   inkscape:cx="168.61768"
   inkscape:cy="47.747459"
   inkscape:window-x="0"
   inkscape:window-y="37"
   inkscape:current-layer="Layer_1" />

<path
   d="M 14.559768,1.4878098 C 7.7719506,1.4878098 2.2513596,7.0209477 2.2513596,13.796218 L 2.2513596,108.16068 C 2.2513596,114.96105 7.7719506,120.48164 14.559768,120.48164 L 108.92423,120.48164 C 115.71205,120.48164 121.23264,114.96105 121.23264,108.16068 L 121.23264,13.796218 C 121.23264,7.0209477 115.71205,1.4878098 108.92423,1.4878098 L 14.559768,1.4878098 z"
   style="fill:#ffffff;fill-opacity:1;fill-rule:nonzero;stroke:none"
   id="path9989" /><path
   d="M 108.92423,122.991 C 117.11729,122.991 123.742,116.35374 123.742,108.16068 L 123.742,13.796218 C 123.742,5.6031595 117.11729,-1.0215497 108.92423,-1.0215497 L 14.559768,-1.0215497 C 6.3792561,-1.0215497 -0.258,5.6031595 -0.258,13.796218 L -0.258,108.16068 C -0.258,116.35374 6.3792561,122.991 14.559768,122.991 L 108.92423,122.991 z"
   style="fill:#000000;fill-opacity:1;fill-rule:nonzero;stroke:none"
   id="path9991" /><path
   d="M 83.140565,32.804617 C 81.522028,34.372967 79.326339,34.98776 76.917353,34.98776 C 73.843388,34.98776 71.045452,33.745627 69.439462,31.361735 C 67.846019,33.783267 65.022989,34.98776 61.911383,34.98776 C 58.837418,34.98776 56.064575,33.720533 54.471132,31.336642 C 52.877689,33.783267 50.067206,34.98776 46.91796,34.98776 C 44.634443,34.98776 42.551674,34.473341 40.983324,33.080647 L 39.803925,24.548824 C 41.422462,26.706873 44.01965,28.099568 46.91796,28.099568 C 50.067206,28.099568 52.877689,26.556312 54.471132,24.109686 C 56.064575,26.481031 58.837418,28.099568 61.911383,28.099568 C 65.022989,28.099568 67.846019,26.556312 69.439462,24.13478 C 71.045452,26.506125 73.843388,28.099568 76.917353,28.099568 C 80.054053,28.099568 82.814348,26.481031 84.395245,24.034406 L 83.140565,32.804617 z"
   style="fill:#ffffff;fill-opacity:1;fill-rule:nonzero;stroke:none"
   id="path9993" /><path
   d="M 85.398989,104.86088 L 98.987171,18.112317 L 89.853102,18.200145 L 77.494506,95.701715 L 46.692117,95.701715 L 34.333522,18.200145 L 25.199453,18.112317 L 38.787635,104.86088 L 85.398989,104.86088 z"
   style="fill:#ffffff;fill-opacity:1;fill-rule:nonzero;stroke:none"
   id="path9995" /></svg>

<svg xmlns="http://www.w3.org/2000/svg" width="123.55" height="123.54" viewBox="-0.258 -0.548 123.547 123.539" enable-background="new -0.258 -0.548 123.547 123.539"><path d="m14.56 1.488c-6.788 0-12.308 5.533-12.308 12.308v94.36c0 6.8 5.521 12.321 12.308 12.321h94.36c6.788 0 12.308-5.521 12.308-12.321v-94.36c0-6.775-5.521-12.308-12.308-12.308h-94.36" fill="#fff"/><path d="m108.92 122.99c8.193 0 14.818-6.637 14.818-14.83v-94.36c0-8.193-6.625-14.818-14.818-14.818h-94.36c-8.181 0-14.818 6.625-14.818 14.818v94.36c0 8.193 6.637 14.83 14.818 14.83h94.36"/><g fill="#fff"><path d="m83.14 32.805c-1.619 1.568-3.814 2.183-6.223 2.183-3.074 0-5.872-1.242-7.478-3.626-1.593 2.422-4.416 3.626-7.528 3.626-3.074 0-5.847-1.267-7.44-3.651-1.593 2.447-4.404 3.651-7.553 3.651-2.284 0-4.366-.514-5.935-1.907l-1.179-8.532c1.619 2.158 4.216 3.551 7.114 3.551 3.149 0 5.96-1.543 7.553-3.99 1.593 2.371 4.366 3.99 7.44 3.99 3.112 0 5.935-1.543 7.528-3.965 1.606 2.371 4.404 3.965 7.478 3.965 3.137 0 5.897-1.619 7.478-4.065l-1.255 8.77"/><path d="m85.4 104.86l13.588-86.75-9.134.088-12.359 77.5h-30.802l-12.359-77.5-9.134-.088 13.588 86.75h46.611"/></g></svg>
